X:1
T:Sio havesse tanto
T:Sio havesse tanto
T:Jhan Gero
T:Source : Trium vocum cantiones---Nürnberg---J.Petreius---1541. Editor : André Vierendeels (22/09/16)
T:Notes : Original clefs : C3, C5, F4 Editorial accidentals above the staff Original note values have been halved
T:©
T:©
T:©
T:©
T:©
C:Jhan Gero
Z:©
%%score [ 1 2 3 ]
L:1/8
Q:1/4=85
M:2/2
K:F
V:1 treble-8 nm="Tenor 1" snm="T 1"
V:2 treble-8 nm="Tenor 2" snm="T 2"
V:3 bass nm="Bass" snm="B"
V:1
 F4 F2 G2 | A2 c2 B4 | A4 c4 | d2 f2 e2 d2 | c2 e2 f4 | g3 f e2 d2- | dc c4 B2 | c4 z2 c2 | %8
w: Sio ha- ves-|se tant' ar-|di- re,|ch'io po- tes- si|ma- don- na'il|gran do- lo- *||re, sco-|
 c2 A2 B4 | G4 c4 | d2 B4 B2 | c4 A2 d2- | dcBA G4 | c4 c2 c2 | A2 B2 c4 | z2 c3 BAG | F2 f3 edc | %17
w: pri- ru'i par-|te che|m'af- fli- ge'l|co- * *|* * * * re,|lie- to fi-|ne fa- ria|el _ _ _|mio mar- * * *|
 BAGF G4 | F8- | F8 | z2 F2 F2 G2 | A2 F2 B4 | A3 B cdec | de f4 e2 | d4 c2 c2 | d2 f2 f2 e2 | %26
w: * * * * ti-|re,|_|e'l mio fi-|del ser- vi-|||re, ap- pres-|so voi po- tri-|
 d4 c2 d2- | d2 c2 B4 | A4 c4 | c2 c2 d2 d2 | c2 c2 z2 c2 | B2 A2 G3 F | E2 c2 c2 B2 | %33
w: a spe- rar|_ pie- ta-|de, per-|che dov- e bel-|ta- de, re-|co- gnar si ved'|an- cho- ra, si|
 A2 G2 A2 B2 | G2 A2 B4 | A8 | z2 c2 f3 f | e2 d2 e4 | c4 f4 | e2 d3 c c2- |"^-natural" c2 B2 c4 | %41
w: ved' an- cho- ra|cor- te- si-|a,|in att' et|in sem- bian-|ti ogn'-|hor mi _ scor-|* * ge,|
 z2 c2 c2 c2 | A2 B2 c4 | c8 | z2 c2 A2 A2 | d3 c B2 A2 | G2 F2 B4 | A4 F4 | A3 B c2 d2 | %49
w: che cer- ta|spe- me por-|ge,|a chion- que|v'a- ma, re- ve-|ri- sc'e te|me, di|gra- to pre- mi'e'n|
 e3 f g2 a2- | ag f4 e2 | f4 F4 | A3 B c2 d2 | e3 f g2 a2- | ag f4 e2 | f8 |] %56
w: com- pren- si- *|* * bil be-|ne, di|gra- to pre- mi'e'n|con- pren- si- bil|_ _ _ be-|ne.|
V:2
 C4 D2 D2 | E2 F4 E2 | F8 | z2 F2 G2 B2 | A2 G2 F2 D2 | E2 F2 G3 F/E/ | FEDC D4 | C8 | F4 D2 D2 | %9
w: Sio ha- ves-|se tant' ar-|dir',|ch'io po- tes-|si ma- don na'il|gran do- lo- * *||re,|sco- pri- ru|
 E4 C4 | F4 G4 | E2 E2 F3 E | D4 E4 | A4 A2 G2 | F2 F2 G3 F | ED C4 c2- | cBAG F2 G2- | GF F4 E2 | %18
w: i par-|te, che|m'af- fli- ge el|co- re,|lie- to fi-|ne fa- ri- *|* * a al|_ _ _ _ mio mar-|* * ti- *|
 F2 C2 C2 C2 | D2 C2 F4 | E2 F4 EC | E2 D3 CDE | FG A3 G c2- | c2 B2 c4 | F4 A2 c2 | c2 B2 A2 G2 | %26
w: re, e'l mio fi-|del ser- vi-||||* * re,|ap- pres- so|voi po- tri- a|
 F3 G A2 B2- | BA A4 G2 | A4 G4 | A2 A2 A2 B2 | A6 G2 | F4 z2 c2- | cB A2 G2 F2 | E2 D2 C2 D2- | %34
w: spe- * * rar|_ pie- ta- *|de, per-|che dov' e bel-|ta- *|de re-|* * gnar si ved'|an- cho- ra cor-|
 DC F4 E2 | F8- | F4 z2 A2 | B3 B A2 G2 | A6 F2 | G4 F2 E2 | D4 C2 G2 | G2 G2 A2 G2 | F4 G4 | %43
w: * * te- si-|a,|_ in|att'- et in sem-|bian- ti|ogn'- hor si|scor- ge, che|cer- ta spe- me|por- ge,|
 z2 G2 E2 E2 | A3 G F2 E2 | D2 F2 G2 C2 | DE F4 E2 | F2 F2 A3 B | c2 d2 c2 BA | G2 c3 BAG | %50
w: a chion- que|v'a- ma, re- ve-|ri- sc'e, e te-||me, di gra- to|pre- mi'e'n com- pren- *|si- * * * *|
 F2 F2 G4 | F2 F2 A3 B | c2 d2 c2 BA | G2 c2 B2 A2 | F4 G4 | F8 |] %56
w: * bil be-|ne, di gra- to|pre- m'i'en com- pre- *|si- * * *|bil be-|ne.|
V:3
 F,,4 B,,2 B,,2 | A,,2 F,,2 G,,4 | F,,8- | F,,4 z4 | C,4 D,2 F,2 | E,2 D,2 C,2 G,,2 | %6
w: Sio ha- ves-|se tant' ar-|dir',|_|ch'io po- tes-|si ma- don- na'il|
 B,,2 A,,2 G,,4 | A,,4 F,,4- | F,,4 z4 | C,4 C,2 A,,2 | B,,4 G,,4 | C,4 D,2 B,,2- | B,,2 B,,2 C,4 | %13
w: gran do- lo-|* re,|_|sco- pri- ru'i|par- te|m'af- fli- ge|_ el co-|
 A,,2 F,2 F,2 C,2 | D,2 D,2 C,2 C,2- | C,B,,A,,G,, F,,2 F,,2 | F,3 E, D,C,B,,A,, | %17
w: re, lie- to fi-|ne fa- ria al|_ _ _ _ _ mio|mar- * * * * *|
 G,,2 A,,2 B,,2 C,2 | F,,8 | z2 F,,2 F,,2 F,,2 | G,,2 F,,2 B,,4 | A,,2 B,,2 G,,A,,B,,C, | %22
w: ti- * * *|re,|e'l mio fi-|del ser- vi-||
 D,E, F,4 E,2 | D,4 C,2 C,2 | D,2 F,2 F,2 E,2 | D,4 C,4 | D,3 E, F,2 B,,2- | B,,2 C,2 D,2 E,2 | %28
w: |* re, ap-|pres- so voi po-|tri- a|spe- * * rar|_ pie- ta- *|
 F,4 C,4 | F,3 E, D,2 B,,2 | F,6 E,2 | D,2 F,2 C,4 | z2 F,2 E,2 D,2 | C,2 B,,2 A,,2 G,,2 | %34
w: de, per-|che do- v'e bel-|ta- *|* * de,|re- gnar si|ved' an- cho- ra|
 B,,2 A,,2 G,,4 | F,,4 z2 F,,2 | F,3 E, D,2 D,2 | G,4 C,4 | F,6 E,D, | C,2 G,,2 B,,2 C,2 | %40
w: cor- te- si-|a, in|att' et in sem-|bian- ti|ogn'- * *|hor mi scor- *|
 G,,4 z2 C,2 | C,2 C,2 F,2 C,2 | D,4 C,4- | C,4 z2 C,2 | A,,2 A,,2 D,3 C, | B,,2 A,,2 G,,2 F,,2 | %46
w: ge, che|cer- ta spe- me|por- ge,|_ a|chion- que v'a- ma,|re- ve- ri- sc'e|
 B,,2 A,,2 G,,4 | F,,8 | F,,4 A,,2 B,,2 | C,3 D, E,2 F,2 | D,2 D,2 C,4 | F,,8 | F,,4 A,,2 B,,2 | %53
w: te- * *|me,|di gra- to|pre- mi'e'n com- pren|si- bil be-|ne,|di gra- to|
 C,3 D, _E,2 F,2 | F,2 D,2 C,4 | F,,8 |] %56
w: pre- mi'e'n com- pren|si- bil be-|ne.|

